X: 19429
T: Jackson's
R: reel
M: 4/4
K: Edorian
|:efed B2 BB|{d}BAGB AGFG|EFGA BG~G2|Bcdf eB~B2|
efed B2 BB|{d}BAGB AFGF|EFGA Beef|(3gfe (3fed Be e2:|
efed Bdeg|fd~d2 dfaf|g2 gf gfed|(3BBB AF GE~E2|
efed Bdeg|fd~d2 dfaf|g2 gf gfed|(3BBB AF GE~E2|
efed Bdeg|fd~d2 dfaf|g2 gf gfef|g2 ga bgef
gbef gbeg|fd~d2 dfaf|bgaf gfef|g3 f e4|

